Yaru++/apps/scalable/gparted.svg

<svg fill="none" height="256" viewBox="0 0 256 256" width="256" xmlns="http://www.w3.org/2000/svg" xmlns:xlink="http://www.w3.org/1999/xlink">
  <linearGradient id="paint0_linear" gradientUnits="userSpaceOnUse" x1="27.3335" x2="227.334" y1="23.1748" y2="223.175">
    <stop offset="0" stop-opacity=".588235"/>
    <stop offset=".88" stop-opacity="0"/>
    <stop offset="1"/>
  </linearGradient>
  <linearGradient id="paint1_linear" gradientUnits="userSpaceOnUse" x1="78.2556" x2="176.422" y1="15.1747" y2="237.173">
    <stop offset="0" stop-color="#b3b3b3"/>
    <stop offset="1" stop-color="#d9d9d9"/>
  </linearGradient>
  <linearGradient id="paint2_linear" gradientUnits="userSpaceOnUse" x1="127.334" x2="127.334" y1="82.0838" y2="183.902">
    <stop offset="0"/>
    <stop offset="1" stop-opacity="0"/>
  </linearGradient>
  <linearGradient id="lg1">
    <stop offset="0" stop-color="#e6e6e6"/>
    <stop offset="1" stop-color="#f2f2f2"/>
  </linearGradient>
  <linearGradient id="paint3_linear" gradientUnits="userSpaceOnUse" x1="127.334" x2="127.334" xlink:href="#lg1" y1="40.1746" y2="182.175"/>
  <linearGradient id="paint4_linear" gradientUnits="userSpaceOnUse" x1="127.334" x2="127.334" xlink:href="#lg1" y1="182.174" y2="40.1746"/>
  <path d="m78.2551 16.1748c-35.2967 0-39.0946 3.6254-38.9216 38.9935v73.0067 73.006c-.173 35.368 3.6249 38.994 38.9216 38.994h98.1569c35.297 0 38.003-3.637 38.922-38.994v-73.006-73.0067c0-35.3685-3.625-38.9935-38.922-38.9935z" fill="#000" opacity=".1"/>
  <path d="m78.2551 16.1748c-35.2967 0-39.0946 3.6254-38.9216 38.9935v73.0067 73.006c-.173 35.368 3.6249 38.994 38.9216 38.994h98.1569c35.297 0 38.922-3.625 38.922-38.994v-73.006-73.0067c0-35.3685-3.625-38.9935-38.922-38.9935z" fill="url(#paint0_linear)" opacity=".3"/>
  <path d="m77.1451 13.1748c-36.0988 0-39.983 3.6902-39.8061 39.6898v74.3104 74.31c-.1769 36 3.7073 39.69 39.8061 39.69h100.3869c36.099 0 39.807-3.69 39.807-39.69v-74.31-74.3104c0-36.0001-3.708-39.6898-39.807-39.6898z" fill="#000" opacity=".1"/>
  <path d="m176.407 15.1748c35.296 0 39.094 3.6254 38.921 38.9935v73.0067 73.006c.173 35.368-3.625 38.994-38.921 38.994h-98.1573c-35.2967 0-38.9216-3.625-38.9216-38.994v-73.006-73.0067c0-35.3685 3.6249-38.9935 38.9216-38.9935z" fill="url(#paint1_linear)"/>
  <path d="m78.2554 15.1748c-35.2967 0-39.0949 3.626-38.9219 38.9941v2c-.173-35.3681 3.6252-38.9941 38.9219-38.9941h98.1566c35.296 0 38.922 3.6256 38.922 38.9941v-2c0-35.3685-3.626-38.9941-38.922-38.9941z" fill="#fff" opacity=".3"/>
  <path d="m39.3276 127.175v73.006c0 35.368 3.6252 38.994 38.9219 38.994h98.1565c35.296 0 39.095-3.626 38.922-38.994v-73.006z" fill="#fff" opacity=".2"/>
  <path d="m127.333 15.1748v224.0002h49.073c35.297 0 39.095-3.626 38.922-38.994v-73.006-73.0061c.173-35.3681-3.625-38.9941-38.922-38.9941z" fill="#fff" opacity=".2"/>
  <path d="m78.2608 239.175c-35.2968 0-39.0949-3.626-38.9219-38.994v-2c-.173 35.368 3.6251 38.994 38.9219 38.994h98.1562c35.297 0 38.922-3.626 38.922-38.994v2c0 35.368-3.625 38.994-38.922 38.994z" fill="#000" opacity=".2"/>
  <path d="m127.334 31.175c44.183 0 80 35.8173 80 80 0 44.183-35.817 80-80 80-44.1828 0-80-35.817-80-80 0-44.1827 35.8172-80 80-80z" fill="#5d5d5d"/>
  <path d="m47.3337 111.175c0-10.506 2.0693-20.909 6.0897-30.6151 4.0203-9.706 9.9131-18.5252 17.3418-25.9539s16.2478-13.3214 25.9539-17.3418c9.7059-4.0204 20.1089-6.0896 30.6149-6.0896 10.505 0 20.908 2.0692 30.614 6.0896s18.526 9.9131 25.954 17.3418c7.429 7.4287 13.322 16.2479 17.342 25.9539 4.02 9.7061 6.09 20.1091 6.09 30.6151z" fill="#000" opacity=".05"/>
  <path d="m127.334 32.9929c-44.183 0-80.0003 35.8172-80.0003 80.0001 0 44.183 35.8173 80 80.0003 80s80-35.817 80-80c0-44.1829-35.817-80.0001-80-80.0001z" opacity=".2" stroke="url(#paint2_linear)" stroke-linejoin="round" stroke-width="11"/>
  <path d="m127.334 188.175c-41.4216 0-75.0003-33.579-75.0003-75 0-41.4218 33.5787-75.0004 75.0003-75.0004 41.421 0 75 33.5786 75 75.0004 0 41.421-33.579 75-75 75z" fill="#000" opacity=".2"/>
  <path d="m127.334 182.175c-39.2125 0-71.0003-31.788-71.0003-71 0-39.2127 31.7878-71.0004 71.0003-71.0004 39.212 0 71 31.7877 71 71.0004 0 39.212-31.788 71-71 71z" fill="url(#paint3_linear)"/>
  <path d="m128.622 182.163c-16.535.3-32.6555-5.181-45.5804-15.498-12.9248-10.316-21.8431-24.821-25.2158-41.01-3.3726-16.19-.9881-33.0493 6.7421-47.6687 7.7302-14.6193 20.3211-26.0817 35.6001-32.4091s32.287-7.1229 48.09-2.2491c15.803 4.8737 29.409 15.1109 38.47 28.9449l-59.394 38.902z" fill="#f76363"/>
  <path d="m181.723 65.5367c9.751 11.6215 15.524 26.0609 16.472 41.2023.948 15.141-2.979 30.187-11.206 42.934l-59.656-38.498z" fill="#5884f4"/>
  <path d="m168.077 169.321c-8.494 5.951-18.189 9.97-28.403 11.773-10.213 1.803-20.698 1.346-30.716-1.339l18.376-68.58z" fill="#76c22b"/>
  <path d="m191.681 141.18c-6.158 13.206-16.229 24.197-28.848 31.482l-35.5-61.487z" fill="#fdc92b"/>
  <path d="m127.334 40.1746c-39.2125 0-71.0003 31.7877-71.0003 70.9994 0 39.213 31.7878 71 71.0003 71 39.212 0 71-31.787 71-71 0-39.2117-31.788-70.9994-71-70.9994z" fill="url(#paint4_linear)" opacity=".2"/>
  <path d="m127.334 143.174c17.673 0 32-14.327 32-32 0-17.6732-14.327-32-32-32s-32 14.3268-32 32c0 17.673 14.327 32 32 32z" fill="#000" opacity=".05"/>
  <path d="m127.334 131.174c11.046 0 20-8.954 20-20s-8.954-20-20-20-20 8.954-20 20 8.954 20 20 20z" fill="#fff"/>
  <g fill="#000">
    <path d="m115.334 90.3899c.956-.5523 1.284-1.7755.732-2.7321s-1.776-1.2843-2.732-.732c-.957.5523-1.284 1.7754-.732 2.732s1.775 1.2844 2.732.7321z" opacity=".1"/>
    <path d="m141.334 135.423c.956-.552 1.284-1.775.732-2.732-.552-.956-1.776-1.284-2.732-.732-.957.553-1.284 1.776-.732 2.732.552.957 1.775 1.285 2.732.732z" opacity=".1"/>
    <path d="m106.549 99.1747c.552-.9566.225-2.1798-.732-2.7321-.957-.5522-2.18-.2245-2.732.7321s-.225 2.1798.732 2.732c.957.5523 2.18.2243 2.732-.732z" opacity=".1"/>
    <path d="m151.583 125.175c.552-.957.224-2.18-.733-2.732-.956-.553-2.179-.225-2.732.732-.552.956-.224 2.179.732 2.732.957.552 2.18.224 2.733-.732z" opacity=".1"/>
    <path d="m103.334 111.175c0-1.105-.896-2-2-2-1.105 0-2.0003.895-2.0003 2 0 1.104.8953 2 2.0003 2 1.104 0 2-.896 2-2z" opacity=".1"/>
    <path d="m155.334 111.175c0-1.105-.896-2-2-2-1.105 0-2 .895-2 2 0 1.104.895 2 2 2 1.104 0 2-.896 2-2z" opacity=".1"/>
    <path d="m106.549 123.175c-.552-.957-1.775-1.285-2.732-.732-.956.552-1.284 1.775-.732 2.732.552.956 1.776 1.284 2.732.732.957-.553 1.285-1.776.732-2.732z" opacity=".1"/>
    <path d="m151.583 97.1746c-.553-.9566-1.776-1.2844-2.733-.7321-.956.5523-1.284 1.7755-.732 2.7321.553.9564 1.776 1.2844 2.732.732.957-.5523 1.285-1.7754.733-2.732z" opacity=".1"/>
    <path d="m115.334 131.959c-.957-.552-2.18-.224-2.732.732-.553.957-.225 2.18.732 2.732.956.553 2.179.225 2.732-.732.552-.956.224-2.179-.732-2.732z" opacity=".1"/>
    <path d="m141.334 86.9259c-.957-.5523-2.18-.2245-2.732.7321-.553.9565-.225 2.1797.732 2.732.956.5523 2.179.2245 2.732-.732.552-.9566.224-2.1798-.732-2.7321z" opacity=".1"/>
    <path d="m127.334 135.175c-1.105 0-2 .895-2 2 0 1.104.895 2 2 2 1.104 0 2-.896 2-2 0-1.105-.896-2-2-2z" opacity=".1"/>
    <path d="m127.334 83.1746c-1.105 0-2 .8954-2 2 0 1.1045.895 2 2 2 1.104 0 2-.8955 2-2 0-1.1046-.896-2-2-2z" opacity=".1"/>
    <path d="m127.334 127.174c8.837 0 16-7.163 16-16s-7.163-16-16-16-16 7.163-16 16 7.163 16 16 16z" opacity=".1"/>
  </g>
  <path d="m127.334 115.175c2.209 0 4-1.791 4-4s-1.791-4-4-4-4 1.791-4 4 1.791 4 4 4z" fill="#888"/>
  <path d="m127.334 40.1746c-39.2125 0-71.0003 31.7877-71.0003 71.0004 0 .317.0199.63.024.946.5091-38.7736 32.0813-70.0531 70.9763-70.0531 38.894 0 70.467 31.2795 70.976 70.0531.004-.316.024-.629.024-.946 0-39.2127-31.788-71.0004-71-71.0004z" fill="#fff" opacity=".5"/>
  <g fill="#000">
    <path d="m67.3337 31.1746c-1.0608 0-2.0782.4214-2.8284 1.1715-.7501.7502-1.1716 1.7676-1.1716 2.8285 0 1.0608.4215 2.0782 1.1716 2.8284.7502.7501 1.7676 1.1716 2.8284 1.1716 1.0609 0 2.0783-.4215 2.8285-1.1716.7501-.7502 1.1715-1.7676 1.1715-2.8284 0-1.0609-.4214-2.0783-1.1715-2.8285-.7502-.7501-1.7676-1.1715-2.8285-1.1715z" opacity=".1"/>
    <path d="m187.334 31.1746c-1.061 0-2.079.4214-2.829 1.1715-.75.7502-1.171 1.7676-1.171 2.8285 0 1.0608.421 2.0782 1.171 2.8284.75.7501 1.768 1.1716 2.829 1.1716s2.078-.4215 2.828-1.1716c.75-.7502 1.172-1.7676 1.172-2.8284 0-1.0609-.422-2.0783-1.172-2.8285-.75-.7501-1.767-1.1715-2.828-1.1715z" opacity=".1"/>
    <path d="m182.488 155.741s-102.5761 73.078-108.3156 76.392-13.0786 1.347-16.3923-4.392c-3.3137-5.74-1.3472-13.079 4.3923-16.393 5.7395-3.313 120.3156-55.607 120.3156-55.607z" opacity=".2"/>
  </g>
  <path d="m181.97 153.809s-102.5759 73.079-108.3154 76.392c-5.7395 3.314-13.0786 1.347-16.3923-4.392-3.3137-5.74-1.3472-13.079 4.3923-16.392 5.7395-3.314 120.3154-55.608 120.3154-55.608z" fill="#fff"/>
  <path d="m68.6882 223.676c2.1338-.572 3.4002-2.765 2.8284-4.899s-2.7651-3.4-4.899-2.829c-2.1339.572-3.4002 2.765-2.8284 4.899.5717 2.134 2.7651 3.401 4.899 2.829z" fill="#808080"/>
  <path d="m187.334 215.175c-1.061 0-2.079.421-2.829 1.171s-1.171 1.768-1.171 2.829c0 1.06.421 2.078 1.171 2.828s1.768 1.172 2.829 1.172 2.078-.422 2.828-1.172 1.172-1.768 1.172-2.828c0-1.061-.422-2.079-1.172-2.829s-1.767-1.171-2.828-1.171z" fill="#000" opacity=".1"/>
</svg>

<svg width="256" height="256" viewBox="0 0 256 256" fill="none" xmlns="http://www.w3.org/2000/svg">
<path opacity="0.1" d="M78.2551 16.1748C42.9584 16.1748 39.1605 19.8002 39.3335 55.1683V128.175V201.181C39.1605 236.549 42.9584 240.175 78.2551 240.175H176.412C211.709 240.175 214.415 236.538 215.334 201.181V128.175V55.1683C215.334 19.7998 211.709 16.1748 176.412 16.1748H78.2551Z" fill="black"/>
<path opacity="0.3" d="M78.2551 16.1748C42.9584 16.1748 39.1605 19.8002 39.3335 55.1683V128.175V201.181C39.1605 236.549 42.9584 240.175 78.2551 240.175H176.412C211.709 240.175 215.334 236.55 215.334 201.181V128.175V55.1683C215.334 19.7998 211.709 16.1748 176.412 16.1748H78.2551Z" fill="url(#paint0_linear)"/>
<path opacity="0.1" d="M77.1451 13.1748C41.0463 13.1748 37.1621 16.865 37.339 52.8646V127.175V201.485C37.1621 237.485 41.0463 241.175 77.1451 241.175H177.532C213.631 241.175 217.339 237.485 217.339 201.485V127.175V52.8646C217.339 16.8645 213.631 13.1748 177.532 13.1748H77.1451Z" fill="black"/>
<path d="M176.407 15.1748C211.703 15.1748 215.501 18.8002 215.328 54.1683V127.175V200.181C215.501 235.549 211.703 239.175 176.407 239.175H78.2497C42.953 239.175 39.3281 235.55 39.3281 200.181V127.175V54.1683C39.3281 18.7998 42.953 15.1748 78.2497 15.1748H176.407Z" fill="url(#paint1_linear)"/>
<path opacity="0.3" d="M78.2555 15.1748C42.9587 15.1748 39.1606 18.8008 39.3336 54.1689V56.1689C39.1606 20.8008 42.9587 17.1748 78.2555 17.1748H176.412C211.708 17.1748 215.334 20.8004 215.334 56.1689V54.1689C215.334 18.8004 211.708 15.1748 176.412 15.1748H78.2555Z" fill="white"/>
<path opacity="0.2" d="M39.3277 127.175V200.181C39.3277 235.549 42.9529 239.175 78.2496 239.175H176.406C211.703 239.175 215.501 235.549 215.328 200.181V127.175H39.3277Z" fill="white"/>
<path opacity="0.2" d="M127.334 15.1748V239.175H176.406C211.703 239.175 215.501 235.549 215.328 200.181V127.175V54.1689C215.501 18.8008 211.703 15.1748 176.406 15.1748H127.334Z" fill="white"/>
<path opacity="0.2" d="M78.2608 239.175C42.9641 239.175 39.166 235.549 39.339 200.181V198.181C39.166 233.549 42.9641 237.175 78.2608 237.175H176.417C211.714 237.175 215.339 233.549 215.339 198.181V200.181C215.339 235.549 211.714 239.175 176.417 239.175H78.2608Z" fill="black"/>
<path d="M127.334 31.175C171.517 31.175 207.334 66.9923 207.334 111.175C207.334 155.358 171.517 191.175 127.334 191.175C83.1512 191.175 47.334 155.358 47.334 111.175C47.334 66.9923 83.1512 31.175 127.334 31.175Z" fill="#5D5D5D"/>
<path opacity="0.05" d="M47.3337 111.175C47.3337 100.669 49.403 90.266 53.4234 80.5599C57.4437 70.8539 63.3365 62.0347 70.7652 54.606C78.1939 47.1773 87.013 41.2846 96.7191 37.2642C106.425 33.2438 116.828 31.1746 127.334 31.1746C137.839 31.1746 148.242 33.2438 157.948 37.2642C167.654 41.2846 176.474 47.1773 183.902 54.606C191.331 62.0347 197.224 70.8539 201.244 80.5599C205.264 90.266 207.334 100.669 207.334 111.175H47.3337Z" fill="black"/>
<path opacity="0.2" d="M127.334 32.9929C83.1509 32.9929 47.3337 68.8101 47.3337 112.993C47.3337 157.176 83.1509 192.993 127.334 192.993C171.516 192.993 207.334 157.176 207.334 112.993C207.334 68.8101 171.516 32.9929 127.334 32.9929Z" stroke="url(#paint2_linear)" stroke-width="10" stroke-linejoin="round"/>
<path opacity="0.2" d="M127.334 188.175C85.9124 188.175 52.3337 154.596 52.3337 113.175C52.3337 71.7532 85.9124 38.1746 127.334 38.1746C168.755 38.1746 202.334 71.7532 202.334 113.175C202.334 154.596 168.755 188.175 127.334 188.175Z" fill="black"/>
<path d="M127.334 182.175C88.1215 182.175 56.3337 150.387 56.3337 111.175C56.3337 71.9623 88.1215 40.1746 127.334 40.1746C166.546 40.1746 198.334 71.9623 198.334 111.175C198.334 150.387 166.546 182.175 127.334 182.175V182.175Z" fill="url(#paint3_linear)"/>
<path d="M128.622 182.163C112.087 182.463 95.9665 176.982 83.0416 166.665C70.1168 156.349 61.1985 141.844 57.8258 125.655C54.4532 109.465 56.8377 92.6058 64.5679 77.9865C72.2981 63.3671 84.889 51.9047 100.168 45.5773C115.447 39.2499 132.455 38.4545 148.258 43.3282C164.061 48.2019 177.667 58.4391 186.728 72.2732L127.334 111.175L128.622 182.163Z" fill="#F76363"/>
<path d="M181.723 65.5369C191.474 77.1583 197.247 91.5978 198.195 106.739C199.143 121.88 195.216 136.927 186.99 149.673L127.334 111.175L181.723 65.5369Z" fill="#5884F4"/>
<path d="M168.077 169.321C159.583 175.273 149.888 179.291 139.674 181.094C129.461 182.897 118.976 182.44 108.957 179.755L127.334 111.175L168.077 169.321Z" fill="#76C22B"/>
<path d="M191.681 141.181C185.524 154.386 175.452 165.377 162.834 172.663L127.334 111.175L191.681 141.181Z" fill="#FDC92B"/>
<path opacity="0.2" d="M127.334 40.1746C88.1215 40.1746 56.3337 71.9623 56.3337 111.174C56.3337 150.387 88.1215 182.174 127.334 182.174C166.546 182.174 198.334 150.387 198.334 111.174C198.334 71.9623 166.546 40.1746 127.334 40.1746Z" fill="url(#paint4_linear)"/>
<path opacity="0.05" d="M127.334 143.174C145.007 143.174 159.334 128.847 159.334 111.174C159.334 93.501 145.007 79.1741 127.334 79.1741C109.661 79.1741 95.334 93.501 95.334 111.174C95.334 128.847 109.661 143.174 127.334 143.174Z" fill="black"/>
<path d="M127.334 131.174C138.38 131.174 147.334 122.22 147.334 111.174C147.334 100.128 138.38 91.1741 127.334 91.1741C116.288 91.1741 107.334 100.128 107.334 111.174C107.334 122.22 116.288 131.174 127.334 131.174Z" fill="white"/>
<g opacity="0.1">
<path opacity="0.1" d="M115.334 90.3899C116.29 89.8376 116.618 88.6144 116.066 87.6578C115.514 86.7012 114.29 86.3735 113.334 86.9258C112.377 87.4781 112.05 88.7012 112.602 89.6578C113.154 90.6144 114.377 90.9422 115.334 90.3899Z" fill="black"/>
<path opacity="0.1" d="M141.334 135.423C142.29 134.871 142.618 133.648 142.066 132.691C141.514 131.735 140.29 131.407 139.334 131.959C138.377 132.512 138.05 133.735 138.602 134.691C139.154 135.648 140.377 135.976 141.334 135.423Z" fill="black"/>
<path opacity="0.1" d="M106.549 99.1747C107.101 98.2181 106.774 96.9949 105.817 96.4426C104.861 95.8904 103.637 96.2181 103.085 97.1747C102.533 98.1313 102.861 99.3545 103.817 99.9067C104.774 100.459 105.997 100.131 106.549 99.1747Z" fill="black"/>
<path opacity="0.1" d="M151.583 125.175C152.135 124.218 151.807 122.995 150.85 122.443C149.894 121.89 148.671 122.218 148.118 123.175C147.566 124.131 147.894 125.354 148.85 125.907C149.807 126.459 151.03 126.131 151.583 125.175Z" fill="black"/>
<path opacity="0.1" d="M103.334 111.175C103.334 110.07 102.438 109.175 101.334 109.175C100.229 109.175 99.3337 110.07 99.3337 111.175C99.3337 112.279 100.229 113.175 101.334 113.175C102.438 113.175 103.334 112.279 103.334 111.175Z" fill="black"/>
<path opacity="0.1" d="M155.334 111.175C155.334 110.07 154.438 109.175 153.334 109.175C152.229 109.175 151.334 110.07 151.334 111.175C151.334 112.279 152.229 113.175 153.334 113.175C154.438 113.175 155.334 112.279 155.334 111.175Z" fill="black"/>
<path opacity="0.1" d="M106.549 123.174C105.997 122.218 104.774 121.89 103.817 122.442C102.861 122.995 102.533 124.218 103.085 125.174C103.637 126.131 104.861 126.459 105.817 125.906C106.774 125.354 107.101 124.131 106.549 123.174Z" fill="black"/>
<path opacity="0.1" d="M151.583 97.1744C151.03 96.2179 149.807 95.8901 148.85 96.4424C147.894 96.9947 147.566 98.2179 148.118 99.1744C148.671 100.131 149.894 100.459 150.85 99.9065C151.807 99.3542 152.135 98.131 151.583 97.1744Z" fill="black"/>
<path opacity="0.1" d="M115.334 131.959C114.377 131.407 113.154 131.735 112.602 132.691C112.049 133.648 112.377 134.871 113.334 135.423C114.29 135.976 115.513 135.648 116.066 134.691C116.618 133.735 116.29 132.512 115.334 131.959Z" fill="black"/>
<path opacity="0.1" d="M141.334 86.9258C140.377 86.3735 139.154 86.7013 138.602 87.6578C138.049 88.6144 138.377 89.8376 139.334 90.3899C140.29 90.9422 141.513 90.6144 142.066 89.6578C142.618 88.7013 142.29 87.4781 141.334 86.9258Z" fill="black"/>
<g opacity="0.1">
<path opacity="0.1" d="M127.334 135.175C126.229 135.175 125.334 136.07 125.334 137.175C125.334 138.279 126.229 139.175 127.334 139.175C128.438 139.175 129.334 138.279 129.334 137.175C129.334 136.07 128.438 135.175 127.334 135.175Z" fill="black"/>
<path opacity="0.1" d="M127.334 83.1746C126.229 83.1746 125.334 84.07 125.334 85.1746C125.334 86.2791 126.229 87.1746 127.334 87.1746C128.438 87.1746 129.334 86.2791 129.334 85.1746C129.334 84.07 128.438 83.1746 127.334 83.1746Z" fill="black"/>
</g>
</g>
<path opacity="0.1" d="M127.334 127.174C136.171 127.174 143.334 120.011 143.334 111.174C143.334 102.338 136.171 95.1741 127.334 95.1741C118.497 95.1741 111.334 102.338 111.334 111.174C111.334 120.011 118.497 127.174 127.334 127.174Z" fill="black"/>
<path d="M127.334 115.175C129.543 115.175 131.334 113.384 131.334 111.175C131.334 108.966 129.543 107.175 127.334 107.175C125.125 107.175 123.334 108.966 123.334 111.175C123.334 113.384 125.125 115.175 127.334 115.175Z" fill="#888888"/>
<path opacity="0.5" d="M127.334 40.1746C88.1215 40.1746 56.3337 71.9623 56.3337 111.175C56.3337 111.492 56.3536 111.805 56.3577 112.121C56.8668 73.3474 88.439 42.0679 127.334 42.0679C166.228 42.0679 197.801 73.3474 198.31 112.121C198.314 111.805 198.334 111.492 198.334 111.175C198.334 71.9623 166.546 40.1746 127.334 40.1746H127.334Z" fill="white"/>
<path opacity="0.1" d="M67.3337 31.1746C66.2729 31.1746 65.2555 31.596 64.5053 32.3461C63.7552 33.0963 63.3337 34.1137 63.3337 35.1746C63.3337 36.2354 63.7552 37.2528 64.5053 38.003C65.2555 38.7531 66.2729 39.1746 67.3337 39.1746C68.3946 39.1746 69.412 38.7531 70.1622 38.003C70.9123 37.2528 71.3337 36.2354 71.3337 35.1746C71.3337 34.1137 70.9123 33.0963 70.1622 32.3461C69.412 31.596 68.3946 31.1746 67.3337 31.1746V31.1746Z" fill="black"/>
<path opacity="0.1" d="M187.334 31.1746C186.273 31.1746 185.255 31.596 184.505 32.3461C183.755 33.0963 183.334 34.1137 183.334 35.1746C183.334 36.2354 183.755 37.2528 184.505 38.003C185.255 38.7531 186.273 39.1746 187.334 39.1746C188.395 39.1746 189.412 38.7531 190.162 38.003C190.912 37.2528 191.334 36.2354 191.334 35.1746C191.334 34.1137 190.912 33.0963 190.162 32.3461C189.412 31.596 188.395 31.1746 187.334 31.1746V31.1746Z" fill="black"/>
<path opacity="0.2" d="M182.488 155.741C182.488 155.741 79.9118 228.819 74.1723 232.133C68.4328 235.447 61.0937 233.48 57.78 227.741C54.4663 222.001 56.4328 214.662 62.1723 211.348C67.9118 208.035 182.488 155.741 182.488 155.741Z" fill="black"/>
<path d="M181.97 153.809C181.97 153.809 79.3942 226.887 73.6547 230.201C67.9151 233.515 60.5761 231.548 57.2624 225.809C53.9486 220.069 55.9151 212.73 61.6547 209.417C67.3942 206.103 181.97 153.809 181.97 153.809V153.809Z" fill="white"/>
<path d="M68.688 223.676C70.8219 223.104 72.0882 220.911 71.5165 218.777C70.9447 216.643 68.7514 215.377 66.6175 215.948C64.4836 216.52 63.2173 218.713 63.7891 220.847C64.3608 222.981 66.5542 224.248 68.688 223.676Z" fill="#808080"/>
<path opacity="0.1" d="M187.334 215.175C186.273 215.175 185.255 215.596 184.505 216.346C183.755 217.096 183.334 218.114 183.334 219.175C183.334 220.235 183.755 221.253 184.505 222.003C185.255 222.753 186.273 223.175 187.334 223.175C188.395 223.175 189.412 222.753 190.162 222.003C190.912 221.253 191.334 220.235 191.334 219.175C191.334 218.114 190.912 217.096 190.162 216.346C189.412 215.596 188.395 215.175 187.334 215.175Z" fill="black"/>
<defs>
<linearGradient id="paint0_linear" x1="27.3335" y1="23.1748" x2="227.334" y2="223.175" gradientUnits="userSpaceOnUse">
<stop stop-opacity="0.588235"/>
<stop offset="0.88" stop-opacity="0"/>
<stop offset="1"/>
</linearGradient>
<linearGradient id="paint1_linear" x1="78.2556" y1="15.1747" x2="176.422" y2="237.173" gradientUnits="userSpaceOnUse">
<stop stop-color="#B3B3B3"/>
<stop offset="1" stop-color="#D9D9D9"/>
</linearGradient>
<linearGradient id="paint2_linear" x1="127.334" y1="82.0838" x2="127.334" y2="183.902" gradientUnits="userSpaceOnUse">
<stop/>
<stop offset="1" stop-opacity="0"/>
</linearGradient>
<linearGradient id="paint3_linear" x1="127.334" y1="40.1746" x2="127.334" y2="182.175" gradientUnits="userSpaceOnUse">
<stop stop-color="#E6E6E6"/>
<stop offset="1" stop-color="#F2F2F2"/>
</linearGradient>
<linearGradient id="paint4_linear" x1="127.334" y1="182.174" x2="127.334" y2="40.1746" gradientUnits="userSpaceOnUse">
<stop stop-color="#E6E6E6"/>
<stop offset="1" stop-color="#F2F2F2"/>
</linearGradient>
</defs>
</svg>
